**kern
*staff2
=1-
*clefG2
*k[b-]
*M3/4
4A/ 4d/
4A/ 4d/
4A/ 4d/
=2
2A/ 2e/
8d/L 8f/L
8e/J 8g/J
=3
8f/L 8a/L
8c/
8f/
8a/J
4f#/ 4dd/
=4
!!linebreak:original
8f#/L
8a/
8g/ 8b-/
8d/ 8b-/
8d/ 8b-/
8c/J 8a/J
=5
8d/L 8a/L
8f#/
8g/
8d/
8d/
8c/J
=6
4d/ 4g/
4r
4d/ 4f/
=7
4d/ 4f/
4c#/ 4e/
4r
=8
!!linebreak:original
8r
8d/L
8g/
8d/ 8b-/
8d/ 8a/
8d/J 8b-/J
=9
8r
8d/L
8f/
8d/ 8f/
8d/ 8f/
8d/J 8f/J
=10
8r
8c/L
8e-/
8e-/ 8a/
8e-/ 8g#/
8e-/J 8a/J
=11
8r
8c/L
8d/
8d/ 8a/
8d/ 8a/
8d/J 8a/J
=12
!!linebreak:original
8r
8d/L
8g/
8d/ 8g/
8d/ 8f/
8d/J 8e/J
=13
4d/ 4f/
4d/ 4e/
4c#/ 4e/
=14
8dd/L
8ff/
8d\
8f\
8A\ 8e\
8c#\J
=15
[4A/ [4c#/
4A/] 4d/
4r
=16||
!!linebreak:original
4A/ 4d/
4A/ 4d/
4A/ 4d/
=17
2A^;/ 2c^;/] 2e^;/
8d/L 8f/L
8e/J 8g/J
=18
8f/L 8a/L
8c/
8f/
8a/J
4f#/ 4dd/
=19
8a/L
8f#/
8g/
8d/ 8g/
8d/ 8g/
8c/J 8f#/J
=20
!!linebreak:original
8d/L
8f#/
8g/
8d/
8d/
8c/J
=21
4d/
4r
4d/
=22
8r
8d-/L
8d-/
8c/
8d-/
8d-/J
=23
!!linebreak:original
4c/
4r
4c/ 4e-/
=24
4c/ 4e-/
4Bn/ 4d/
4r
=25
2e-/ 2g/
4f/ 4a/
=26
!!linebreak:original
8r
8d/L
8f/
8b-/J
4dd\
=27
4r
4d/ 4f/ 4a/
4c#/ 4e/ 4a/
=28
8F/L 8d/L
8A/
8d/
8f/J
8G/L 8e/L
8c#/J
=29
4G/ 4c#/
4F/ 4d/
4r
=30||
!!linebreak:original
4A/ 4d/
4A/ 4d/
4A/ 4d/
=31
2A/ 2e/
8d/L 8f/L
8e/J 8g/J
=32
8f/L 8a/L
8c/
8f/
8a/J
4f#/ 4dd/
=33
4f#/ 4a/
4g^;/ 4b-^;/
4r
=34
!!linebreak:original
8r
8e-/L
8e-/
8e-/
8e-/
8e-/J
=35
4d/
4r
4r
=36
8r
8d-/L
8d-/
8d-/
8c/
8d-/J
=37
!!linebreak:original
4c/
4r
4e-/
=38
4f#/
8g/
8r
4r
=39
2e-/ 2g/
4f/ 4a/
=40
!!linebreak:original
8r
8d/L
8f/
8d/ 8f/
8d/ 8f/
8d/J 8f/J
=41
8r
8d/L
8f/
8d/ 8f/ 8dd/
8d/ 8f/ 8b-/
8d/J 8g#/J
=42
4d/ 4f/ 4a/
4d/ 4e/
4c#/ 4e/
=43
8d/L
8A/
8d/
8f/
8A/ 8e/
8c#/J
=44
[4A/ [4c#/
4A/] 4d/
4r
==
*-
